X: 725
T: Last Night's Fun
B: jims roots
M:2/4
L:1/16
R: reel
Q: 1/4=100
K:Dmaj
V:1 
DB, | "D"A,DDF EDdB | "A"AFEG "D"FDB,D | A,DDF EDdB | "A"AFEF "D"D2DB, |
"D"A,DDF EDdB | "A"AFEG "D"FDB,D | A,DDF EDdB | "A"AFEF "D"D2 :|
|: ((3ABc) || "D"dcdB AdFA | "A"GEFD "D"EDBc | dcdB Adfd | "A"edef "D"d2de |
"D"fdBd AdFA | "A"GEFD "D"EDB,D |EDAF EDdB | "A"AFEF "D"D2 :|
dB | "D"Addf edd'b | "A"afeg "D"fdBd | Addf edd'b | "A"afef "D"d2dB |
"D"Addf edd'b | "A"afeg "D"fdBd | Addf edd'b | "A"afef "D"d2 :|
% abcbook-tune_id 6298c25d4a2e139ddaf48ecb


% abcbook-boost 0
% abcbook-tablature 
% abcbook-transpose 
% abcbook-lastupdated 1654178399618
% abcbook-soundfonts 
% abcbook-repeats 1


